static/img/olake/olake-product-3.svg

<svg width="72" height="72" viewBox="0 0 72 72" fill="none" xmlns="http://www.w3.org/2000/svg">
<circle cx="36" cy="36" r="36" fill="#333333"/>
<path fill-rule="evenodd" clip-rule="evenodd" d="M22.6641 16.3327C22.6641 15.4122 23.4103 14.666 24.3307 14.666H47.6641C48.5845 14.666 49.3307 15.4122 49.3307 16.3327C49.3307 17.2532 48.5845 17.9993 47.6641 17.9993H45.9974V23.286C45.9971 24.6119 45.4702 25.8837 44.5326 26.8212C44.5325 26.8213 44.5326 26.8211 44.5326 26.8212L38.3544 32.9993L44.5324 39.1773C44.5323 39.1773 44.5325 39.1774 44.5324 39.1773C45.47 40.1148 45.9971 41.3864 45.9974 42.7123V47.9993H47.6641C48.5845 47.9993 49.3307 48.7455 49.3307 49.666C49.3307 50.5865 48.5845 51.3327 47.6641 51.3327H24.3307C23.4103 51.3327 22.6641 50.5865 22.6641 49.666C22.6641 48.7455 23.4103 47.9993 24.3307 47.9993H25.9974V42.7127C25.9977 41.3868 26.5246 40.1149 27.4622 39.1775C27.4622 39.1776 27.4623 39.1774 27.4622 39.1775L33.6404 32.9993L27.4624 26.8214C27.4623 26.8213 27.4625 26.8214 27.4624 26.8214C26.5248 25.8839 25.9977 24.6123 25.9974 23.2864V17.9993H24.3307C23.4103 17.9993 22.6641 17.2532 22.6641 16.3327ZM29.3307 17.9993V23.2857C29.3307 23.2855 29.3307 23.2858 29.3307 23.2857C29.3309 23.7275 29.5066 24.1516 29.8191 24.464L35.9974 30.6423L42.1756 24.4642C42.4881 24.1518 42.6639 23.7279 42.6641 23.286C42.6641 23.2859 42.6641 23.2861 42.6641 23.286V17.9993H29.3307ZM35.9974 35.3564L29.8192 41.5345C29.5067 41.8469 29.3309 42.2708 29.3307 42.7127C29.3307 42.7126 29.3307 42.7128 29.3307 42.7127V47.9993H42.6641V42.713C42.6641 42.7129 42.6641 42.7132 42.6641 42.713C42.6639 42.2712 42.4882 41.8471 42.1757 41.5347L35.9974 35.3564Z" fill="#7C91F8"/>
</svg>

<svg xmlns="http://www.w3.org/2000/svg" width="72" height="72" fill="none" viewBox="0 0 72 72"><circle cx="36" cy="36" r="36" fill="#333"/><path fill="#7c91f8" fill-rule="evenodd" d="M22.664 16.333c0-.92.746-1.667 1.667-1.667h23.333a1.667 1.667 0 0 1 0 3.333h-1.667v5.287a5 5 0 0 1-1.464 3.535L38.354 33l6.178 6.178a5 5 0 0 1 1.465 3.535V48h1.667a1.667 1.667 0 0 1 0 3.334H24.331a1.667 1.667 0 0 1 0-3.334h1.666v-5.286c0-1.326.528-2.598 1.465-3.535l6.178-6.179-6.178-6.178a5 5 0 0 1-1.465-3.535V18h-1.666c-.92 0-1.667-.746-1.667-1.666m6.667 1.666v5.287c0 .441.176.866.488 1.178l6.178 6.178 6.179-6.178c.312-.312.488-.736.488-1.178v-5.287zm6.666 17.357-6.178 6.179a1.67 1.67 0 0 0-.488 1.178v5.286h13.333v-5.286c0-.442-.176-.866-.488-1.178z" clip-rule="evenodd"/></svg>
